X: 151
M: 2/4
L: 1/16
K: G
|:\
K:Gm
|: "2.f."B2c2 |\
d4 g4 | d3ed2c2 | B2d2 edcB | A2G2B2c2 |\
d4 g4 | d3ed2c2 | B2d2 edcB | A4 B2A2 |

